icons/search.svg

<svg width="24" height="24" viewBox="0 0 24 24" fill="none" xmlns="http://www.w3.org/2000/svg">
<path d="M16.9 15.5C19.3 12.3 19.1 7.79995 16.2 4.89995C13.1 1.79995 8.09995 1.79995 4.89995 4.89995C1.79995 8.09995 1.79995 13.2 4.89995 16.3C7.79995 19.2 12.4 19.4 15.5 16.9C15.5 17 15.5 17 15.5 17L19.7 21.2C20.2 21.6 20.8 21.6 21.2 21.2C21.6 20.8 21.6 20.1999 21.2 19.7999L16.9 15.5ZM14.8 6.29995C17.1 8.59995 17.1 12.4 14.8 14.8C12.5 17.1 8.69995 17.1 6.29995 14.8C3.99995 12.5 3.99995 8.69995 6.29995 6.29995C8.69995 3.99995 12.5 3.99995 14.8 6.29995Z" fill="white"/>
</svg>

<svg xmlns="http://www.w3.org/2000/svg" viewBox="0 0 24 24" width="24" height="24">
  <path d="M16.9,15.5c2.4-3.2,2.2-7.7-0.7-10.6c-3.1-3.1-8.1-3.1-11.3,0c-3.1,3.2-3.1,8.3,0,11.4
    c2.9,2.9,7.5,3.1,10.6,0.6c0,0.1,0,0.1,0,0.1l4.2,4.2c0.5,0.4,1.1,0.4,1.5,0c0.4-0.4,0.4-1,0-1.4L16.9,15.5
    C16.9,15.5,16.9,15.5,16.9,15.5L16.9,15.5z M14.8,6.3c2.3,2.3,2.3,6.1,0,8.5c-2.3,2.3-6.1,2.3-8.5,0C4,12.5,4,8.7,6.3,6.3
    C8.7,4,12.5,4,14.8,6.3z"/>
</svg>
